X: 10996
T: Drunken Parson, The
R: jig
M: 6/8
K: Gmajor
|:D|GBB Acc|Bdd c2e|dBB cAA|BAG A2D|
GBB Acc|Bdd c2e|dBB cAd|1 BGG G2:|2 BGG G2D||
|:GBd ~g3|ecc c2B|A^ce ~a3|fdd dBA|
GBd ~g3|ecc c2e|dBB cAd|1 BGG G2D:|2 BGG G3||

